public/navbar-icon-user.svg

<svg width="24" height="24" viewBox="0 0 24 24" fill="none" xmlns="http://www.w3.org/2000/svg">
<path d="M12 21.98C6.50002 21.98 2.02002 17.505 2.02002 12C2.02002 6.49502 6.50002 2.02502 12 2.02502C17.5 2.02502 21.98 6.50002 21.98 12.005C21.98 17.51 17.505 21.985 12 21.985V21.98ZM12 3.02502C7.05002 3.02502 3.02502 7.05002 3.02502 12C3.02502 16.95 7.05002 20.98 12.005 20.98C16.96 20.98 20.985 16.955 20.985 12C20.985 7.04502 16.95 3.02502 12 3.02502Z" fill="#878787"/>
<path d="M12.0002 14.225C9.82518 14.225 8.05518 12.455 8.05518 10.28C8.05518 8.10496 9.82518 6.33496 12.0002 6.33496C14.1752 6.33496 15.9452 8.10496 15.9452 10.28C15.9452 12.455 14.1752 14.225 12.0002 14.225ZM12.0002 7.32996C10.3752 7.32996 9.05518 8.64996 9.05518 10.275C9.05518 11.9 10.3752 13.22 12.0002 13.22C13.6252 13.22 14.9452 11.9 14.9452 10.275C14.9452 8.64996 13.6252 7.32996 12.0002 7.32996Z" fill="#878787"/>
<path d="M5.97021 19.81C5.69521 19.81 5.47021 19.585 5.47021 19.31V18.03C5.47021 17.755 5.69521 17.53 5.97021 17.53C6.24521 17.53 6.47021 17.755 6.47021 18.03V19.31C6.47021 19.585 6.24521 19.81 5.97021 19.81Z" fill="#878787"/>
<path d="M18.0352 19.81C17.7602 19.81 17.5352 19.585 17.5352 19.31V18.03C17.5352 17.755 17.7602 17.53 18.0352 17.53C18.3102 17.53 18.5352 17.755 18.5352 18.03V19.31C18.5352 19.585 18.3102 19.81 18.0352 19.81Z" fill="#878787"/>
<path d="M18.0351 18.53C17.7601 18.53 17.5351 18.305 17.5351 18.03C17.5351 15.93 15.8251 14.22 13.7251 14.22C13.4501 14.22 13.2251 13.995 13.2251 13.72C13.2251 13.445 13.4501 13.22 13.7251 13.22C16.3751 13.22 18.5351 15.375 18.5351 18.03C18.5351 18.305 18.3101 18.53 18.0351 18.53Z" fill="#878787"/>
<path d="M5.97021 18.53C5.69521 18.53 5.47021 18.305 5.47021 18.03C5.47021 15.38 7.62521 13.22 10.2802 13.22C10.5552 13.22 10.7802 13.445 10.7802 13.72C10.7802 13.995 10.5552 14.22 10.2802 14.22C8.18021 14.22 6.47021 15.93 6.47021 18.03C6.47021 18.305 6.24521 18.53 5.97021 18.53Z" fill="#878787"/>
<path d="M13.7248 14.225H10.2798C10.0048 14.225 9.77979 14 9.77979 13.725C9.77979 13.45 10.0048 13.225 10.2798 13.225H13.7248C13.9998 13.225 14.2248 13.45 14.2248 13.725C14.2248 14 13.9998 14.225 13.7248 14.225Z" fill="#878787"/>
</svg>

<svg xmlns="http://www.w3.org/2000/svg" width="24" height="24" fill="none" viewBox="0 0 24 24"><path fill="#878787" d="M12 21.98c-5.5 0-9.98-4.475-9.98-9.98S6.5 2.025 12 2.025s9.98 4.475 9.98 9.98-4.475 9.98-9.98 9.98zm0-18.955C7.05 3.025 3.025 7.05 3.025 12s4.025 8.98 8.98 8.98 8.98-4.025 8.98-8.98S16.95 3.025 12 3.025"/><path fill="#878787" d="M12 14.225a3.95 3.95 0 0 1-3.945-3.945A3.95 3.95 0 0 1 12 6.335a3.95 3.95 0 0 1 3.945 3.945A3.95 3.95 0 0 1 12 14.225m0-6.895a2.947 2.947 0 0 0-2.945 2.945A2.947 2.947 0 0 0 12 13.22a2.947 2.947 0 0 0 2.945-2.945A2.947 2.947 0 0 0 12 7.33M5.97 19.81a.5.5 0 0 1-.5-.5v-1.28c0-.275.225-.5.5-.5s.5.225.5.5v1.28c0 .275-.225.5-.5.5m12.065 0a.5.5 0 0 1-.5-.5v-1.28c0-.275.225-.5.5-.5s.5.225.5.5v1.28c0 .275-.225.5-.5.5"/><path fill="#878787" d="M18.035 18.53a.5.5 0 0 1-.5-.5c0-2.1-1.71-3.81-3.81-3.81a.5.5 0 0 1-.5-.5c0-.275.225-.5.5-.5 2.65 0 4.81 2.155 4.81 4.81 0 .275-.225.5-.5.5m-12.065 0a.5.5 0 0 1-.5-.5c0-2.65 2.155-4.81 4.81-4.81.275 0 .5.225.5.5s-.225.5-.5.5c-2.1 0-3.81 1.71-3.81 3.81 0 .275-.225.5-.5.5"/><path fill="#878787" d="M13.725 14.225H10.28a.5.5 0 0 1-.5-.5c0-.275.225-.5.5-.5h3.445c.275 0 .5.225.5.5s-.225.5-.5.5"/></svg>
